X:16
T:Haste to the Wedding
R:jig
O:Ireland
M:6/8
L:1/8
K:D
   A | "D" AFA           Agf | "G" ede fdB | "D" AFA      AGF | "A" EFE  EFG |
       "D" AFA           Agf | "G" ede fdB | "D" A2 g "A" faf | "D" ded   d2 :|
|: a | "D" afa           afa | "G" bgb bgb | "D" afa      agf | "A" efe  efg |
       "D" (a2 a) "A" (f2 f) | "G" ede fdB | "D" A2 g "A" faf | "D" ded   d2 :|
